X: 15396
T: Glassamucky Brakes
R: reel
M: 4/4
K: Edorian
|:EFGB ~A3B|EFGB AGFG|EFGB ~A3B|d2 BA AGFG:|
EBed c3 B|BABd cABB|EBed c3 B|BAAG GFFE|
EDed c3 B|BABd cABB|EFGB ~A3B|d2 BA AGFG||

